icons/square/48/steam_icon_355410.svg

<svg viewBox="0 0 48 48" xmlns="http://www.w3.org/2000/svg">
 <defs>
  <linearGradient id="background" x2="0" y1="1" y2="47" gradientUnits="userSpaceOnUse">
   <stop stop-color="#383838" offset="0"/>
   <stop stop-color="#282828" offset="1"/>
  </linearGradient>
 </defs>
 <path d="m1 43v0.25c0 2.216 1.784 4 4 4h38c2.216 0 4-1.784 4-4v-0.25c0 2.216-1.784 4-4 4h-38c-2.216 0-4-1.784-4-4zm0 0.5v0.5c0 2.216 1.784 4 4 4h38c2.216 0 4-1.784 4-4v-0.5c0 2.216-1.784 4-4 4h-38c-2.216 0-4-1.784-4-4z" opacity=".02"/>
 <path d="m1 43.25v0.25c0 2.216 1.784 4 4 4h38c2.216 0 4-1.784 4-4v-0.25c0 2.216-1.784 4-4 4h-38c-2.216 0-4-1.784-4-4z" opacity=".05"/>
 <path d="m1 43v0.25c0 2.216 1.784 4 4 4h38c2.216 0 4-1.784 4-4v-0.25c0 2.216-1.784 4-4 4h-38c-2.216 0-4-1.784-4-4z" opacity=".1"/>
 <rect x="1" y="1" width="46" height="46" rx="4" fill="url(#background)"/>
 <path d="m1 39v4c0 2.216 1.784 4 4 4h38c2.216 0 4-1.784 4-4v-4c0 2.216-1.784 4-4 4h-38c-2.216 0-4-1.784-4-4z" opacity=".1"/>
 <path transform="translate(0,1)" d="m23.646 9a15 15 0 0 0-7.146 2.01l5.004 8.666a5 5 0 0 1 2.496-0.676 5 5 0 0 1 2.498 0.674l5.002-8.664a15 15 0 0 0-7.854-2.01zm0.354 12a3 3 0 0 0-3 3 3 3 0 0 0 3 3 3 3 0 0 0 3-3 3 3 0 0 0-3-3zm-15 3a15 15 0 0 0 7.5 12.99l5.002-8.664a5 5 0 0 1-2.502-4.326h-10zm20 0a5 5 0 0 1-2.504 4.324l5.004 8.666a15 15 0 0 0 7.5-12.99h-10z" opacity=".1"/>
 <path d="m23.646 9a15 15 0 0 0-7.146 2.01l5.004 8.666a5 5 0 0 1 2.496-0.676 5 5 0 0 1 2.498 0.674l5.002-8.664a15 15 0 0 0-7.854-2.01zm0.354 12a3 3 0 0 0-3 3 3 3 0 0 0 3 3 3 3 0 0 0 3-3 3 3 0 0 0-3-3zm-15 3a15 15 0 0 0 7.5 12.99l5.002-8.664a5 5 0 0 1-2.502-4.326h-10zm20 0a5 5 0 0 1-2.504 4.324l5.004 8.666a15 15 0 0 0 7.5-12.99h-10z" fill="#099009"/>
</svg>

<svg xmlns="http://www.w3.org/2000/svg" viewBox="0 0 48 48">
	<defs>
		<linearGradient gradientUnits="userSpaceOnUse" id="background" x1="0" x2="0" y1="1" y2="47">
			<stop stop-color="#383838" offset="0"/>
			<stop stop-color="#282828" offset="1"/>
		</linearGradient>
	</defs>
	<g>
		<path d="m 1 43 l 0 0.25 c 0 2.216 1.784 4 4 4 l 38 0 c 2.216 0 4 -1.784 4 -4 l 0 -0.25 c 0 2.216 -1.784 4 -4 4 l -38 0 c -2.216 0 -4 -1.784 -4 -4 z m 0 0.5 l 0 0.5 c 0 2.216 1.784 4 4 4 l 38 0 c 2.216 0 4 -1.784 4 -4 l 0 -0.5 c 0 2.216 -1.784 4 -4 4 l -38 0 c -2.216 0 -4 -1.784 -4 -4 z" opacity=".02"/>
		<path d="m 1 43.25 l 0 0.25 c 0 2.216 1.784 4 4 4 l 38 0 c 2.216 0 4 -1.784 4 -4 l 0 -0.25 c 0 2.216 -1.784 4 -4 4 l -38 0 c -2.216 0 -4 -1.784 -4 -4 z" opacity=".05"/>
		<path d="m 1 43 l 0 0.25 c 0 2.216 1.784 4 4 4 l 38 0 c 2.216 0 4 -1.784 4 -4 l 0 -0.25 c 0 2.216 -1.784 4 -4 4 l -38 0 c -2.216 0 -4 -1.784 -4 -4 z" opacity=".1"/>
	</g>
	<rect fill="url(#background)" height="46" rx="4" width="46" x="1" y="1"/>
	<path opacity=".1" d="m1 39v4c0 2.216 1.784 4 4 4h38c2.216 0 4-1.784 4-4v-4c0 2.216-1.784 4-4 4h-38c-2.216 0-4-1.784-4-4z"/>
	<path d="M 23.646 9 A 15 15 0 0 0 16.5 11.01 L 21.504 19.676 A 5 5 0 0 1 24 19 A 5 5 0 0 1 26.498 19.674 L 31.5 11.01 A 15 15 0 0 0 23.646 9 z M 24 21 A 3 3 0 0 0 21 24 A 3 3 0 0 0 24 27 A 3 3 0 0 0 27 24 A 3 3 0 0 0 24 21 z M 9 24 A 15 15 0 0 0 16.5 36.99 L 21.502 28.326 A 5 5 0 0 1 19 24 L 9 24 z M 29 24 A 5 5 0 0 1 26.496 28.324 L 31.5 36.99 A 15 15 0 0 0 39 24 L 29 24 z" opacity=".1" transform="translate(0,1)"/>
	<path d="M 23.646 9 A 15 15 0 0 0 16.5 11.01 L 21.504 19.676 A 5 5 0 0 1 24 19 A 5 5 0 0 1 26.498 19.674 L 31.5 11.01 A 15 15 0 0 0 23.646 9 z M 24 21 A 3 3 0 0 0 21 24 A 3 3 0 0 0 24 27 A 3 3 0 0 0 27 24 A 3 3 0 0 0 24 21 z M 9 24 A 15 15 0 0 0 16.5 36.99 L 21.502 28.326 A 5 5 0 0 1 19 24 L 9 24 z M 29 24 A 5 5 0 0 1 26.496 28.324 L 31.5 36.99 A 15 15 0 0 0 39 24 L 29 24 z" fill="#099009"/>
</svg>
